assets/icons/ios.svg

<?xml version="1.0"?>
<!DOCTYPE svg PUBLIC "-//W3C//DTD SVG 1.1//EN" "http://www.w3.org/Graphics/SVG/1.1/DTD/svg11.dtd">
<!-- Uploaded to: SVG Repo, www.svgrepo.com, Transformed by: SVG Repo Mixer Tools -->
<svg xmlns="http://www.w3.org/2000/svg" width="512px" height="512px" viewBox="-3.2 -3.2 38.40 38.40" fill="none">
    <g id="SVGRepo_bgCarrier" stroke-width="0">
        <rect x="-3.2" y="-3.2" width="38.40" height="38.40" rx="5.76" fill="#ffffff" strokewidth="0"/>
    </g>
    <g id="SVGRepo_tracerCarrier" stroke-linecap="round" stroke-linejoin="round"/>
    <g id="SVGRepo_iconCarrier">
        <path d="M30 16C30 23.728 23.735 30 16 30C8.265 30 2 23.728 2 16C2 8.265 8.265 2 16 2C23.735 2 30 8.265 30 16Z" fill="#283544"/>
        <path d="M7.08597 20.8394H8.61506V13.7443H7.08597V20.8394ZM7.84745 12.8139C8.3203 12.8139 8.70103 12.4123 8.70103 11.9103C8.70103 11.3949 8.3203 11 7.84745 11C7.38074 11 7 11.3949 7 11.9103C7 12.4123 7.38074 12.8139 7.84745 12.8139Z" fill="white"/>
        <path d="M13.9577 11.0201C11.3723 11.0201 9.75113 12.9411 9.75113 16.0134C9.75113 19.0857 11.3723 21 13.9577 21C16.5368 21 18.158 19.0857 18.158 16.0134C18.158 12.9411 16.5368 11.0201 13.9577 11.0201ZM13.9577 12.4926C15.5359 12.4926 16.543 13.8581 16.543 16.0134C16.543 18.162 15.5359 19.5274 13.9577 19.5274C12.3733 19.5274 11.3723 18.162 11.3723 16.0134C11.3723 13.8581 12.3733 12.4926 13.9577 12.4926Z" fill="white"/>
        <path d="M19.0608 18.1218C19.1283 19.9023 20.467 21 22.5058 21C24.649 21 26 19.8487 26 18.0147C26 16.5756 25.2385 15.7657 23.4392 15.3173L22.4198 15.0629C21.3329 14.7818 20.8846 14.407 20.8846 13.7644C20.8846 12.9612 21.5601 12.4257 22.5611 12.4257C23.5743 12.4257 24.2683 12.9679 24.342 13.8715H25.8526C25.8158 12.1714 24.5262 11.0201 22.5734 11.0201C20.6451 11.0201 19.2757 12.178 19.2757 13.8916C19.2757 15.2704 20.0495 16.1272 21.6829 16.5355L22.8313 16.83C23.9489 17.1178 24.4034 17.5194 24.4034 18.2155C24.4034 19.0187 23.6603 19.5944 22.5918 19.5944C21.511 19.5944 20.6942 19.012 20.596 18.1218H19.0608Z" fill="white"/>
    </g>
</svg>

<svg xmlns="http://www.w3.org/2000/svg" width="512" height="512" fill="none" viewBox="-3.2 -3.2 38.4 38.4"><rect width="38.4" height="38.4" x="-3.2" y="-3.2" fill="#fff" stroke-width="0" rx="5.76"/><path fill="#283544" d="M30 16c0 7.728-6.265 14-14 14S2 23.728 2 16C2 8.265 8.265 2 16 2s14 6.265 14 14"/><path fill="#fff" d="M7.086 20.84h1.53v-7.096h-1.53zm.761-8.026c.473 0 .854-.402.854-.904 0-.515-.38-.91-.854-.91-.466 0-.847.395-.847.91 0 .502.38.904.847.904M13.958 11.02c-2.586 0-4.207 1.921-4.207 4.993S11.372 21 13.958 21c2.579 0 4.2-1.914 4.2-4.987 0-3.072-1.621-4.993-4.2-4.993m0 1.473c1.578 0 2.585 1.365 2.585 3.52 0 2.149-1.007 3.514-2.585 3.514-1.585 0-2.586-1.365-2.586-3.514 0-2.155 1.001-3.52 2.586-3.52M19.06 18.122c.068 1.78 1.407 2.878 3.446 2.878C24.649 21 26 19.849 26 18.015c0-1.44-.762-2.25-2.56-2.698l-1.02-.254c-1.087-.281-1.535-.656-1.535-1.299 0-.803.675-1.338 1.676-1.338 1.013 0 1.707.542 1.781 1.445h1.51c-.036-1.7-1.326-2.85-3.279-2.85-1.928 0-3.297 1.157-3.297 2.87 0 1.38.773 2.236 2.407 2.644l1.148.295c1.118.288 1.572.69 1.572 1.386 0 .803-.743 1.378-1.811 1.378-1.081 0-1.898-.582-1.996-1.472z"/></svg>
